icons/Canta/status/symbolic/software-update-urgent-symbolic.svg

<svg width="16" height="16" version="1.1" xmlns="http://www.w3.org/2000/svg">
 <path class="warning" d="m7.9998 0.72211c-0.73799 0.72824-1.4448 1.5567-2.1914 2.2812h-2.8086v2.8086c-0.72465 0.74666-1.5529 1.4534-2.2812 2.1914 0.72849 0.73824 1.5565 1.4735 2.2812 2.2227v2.7773h2.8066c0.74736 0.72494 1.4547 1.5523 2.1934 2.2812 0.73886-0.7291 1.4748-1.5562 2.2246-2.2812h2.7754v-2.7773c0.72478-0.74913 1.5527-1.4844 2.2812-2.2227-0.72829-0.73805-1.5566-1.4447-2.2812-2.1914v-2.8086h-2.7773c-0.74913-0.72478-1.4845-1.5527-2.2227-2.2812zm-1 3.2812h2v5h-2v-2.0039zm0 5.9961h2v2h-2z" enable-background="new" fill="#ff9800"/>
</svg>

<svg xmlns="http://www.w3.org/2000/svg" width="16" height="16"><path class="warning" d="M8 .72L5.81 3H3v2.81L.72 8 3 10.22V13h2.81L8 15.28 10.22 13H13v-2.78L15.28 8 13 5.81V3h-2.78zM7 4h2v5H7zm0 6h2v2H7z" fill="#5294e2"/></svg>
